dist/images/logo-dark.svg

<svg width="174" height="66" viewBox="0 0 174 66" fill="none" xmlns="http://www.w3.org/2000/svg">
<g clip-path="url(#clip0_12_353)">
<path d="M38.2494 15.9393V7.97101C38.2494 7.09091 37.5359 6.37735 36.6557 6.37735H35.0621V1.59635C35.0621 0.716248 34.3486 0.00268395 33.4684 0.00268395C31.2122 0.00268395 27.7569 -0.170229 23.7008 2.25971C21.1794 1.5092 19.3962 1.59635 17.5317 1.59635C16.6515 1.59635 15.9381 2.30991 15.9381 3.19002V6.37735H14.3444C13.4642 6.37735 12.7507 7.09091 12.7507 7.97101V15.9393C12.7507 22.4297 17.6259 27.8026 23.9064 28.5893V49.4063C23.9064 50.2864 24.6199 51 25.5001 51C26.3803 51 27.0937 50.2864 27.0937 49.4063V43.8285H29.4842C34.3173 43.8285 38.2494 39.8964 38.2494 35.0633V32.6728C38.2494 31.7927 37.5359 31.0792 36.6557 31.0792H32.6716C30.5545 31.0792 28.6103 31.8337 27.0937 33.0879V28.5885C33.3649 27.8119 38.2494 22.4657 38.2494 15.9393ZM35.0621 15.9393C35.0621 18.7756 33.8077 21.3372 31.8253 23.0935C31.8566 22.8378 31.8747 22.5781 31.8747 22.314C31.8747 18.2781 30.3659 14.5886 27.8838 11.7778C29.9881 10.3419 32.4831 9.56468 35.0621 9.56468V15.9393ZM31.8747 3.19002V6.69887C31.5802 6.75883 31.2878 6.82726 30.9977 6.90366C29.9638 5.74636 28.7847 4.76037 27.4973 3.96364C28.8889 3.45486 30.3661 3.19002 31.8747 3.19002ZM19.1254 4.78368C22.2915 4.78368 25.3662 5.93979 27.7574 8.14871C26.9682 8.55599 26.2115 9.0308 25.4954 9.56916C23.6424 8.1761 21.4773 7.17707 19.1254 6.69777V4.78368ZM15.9381 15.9393V9.56468C22.968 9.56468 28.6874 15.2839 28.6874 22.314C28.6874 24.0949 27.2167 25.5461 25.4163 25.4998C19.8175 25.3616 15.9381 20.9135 15.9381 15.9393ZM32.6716 34.2665H35.0621V35.0633C35.0621 38.1389 32.5599 40.6412 29.4842 40.6412H27.0937V39.8443C27.0937 36.7688 29.596 34.2665 32.6716 34.2665Z" fill="white"/>
</g>
<path d="M57.8516 20.7814H51.3935V24.8411H59.0216V28H47.2869V10.9655H59.045V14.1361H51.3935V17.7278H57.8516V20.7814ZM67.3627 16.6281L70.1472 10.9655H74.8387L70.077 19.4126L74.9674 28H70.2291L67.3627 22.2321L64.4963 28H59.7697L64.6484 19.4126L59.8984 10.9655H64.5782L67.3627 16.6281ZM80.7346 22.2204V28H76.6281V10.9655H83.4255C84.728 10.9655 85.8785 11.2073 86.8768 11.6909C87.883 12.1667 88.6591 12.8491 89.205 13.7383C89.7588 14.6197 90.0357 15.6219 90.0357 16.7451C90.0357 18.4064 89.439 19.7362 88.2457 20.7346C87.0601 21.7252 85.43 22.2204 83.3553 22.2204H80.7346ZM80.7346 19.0499H83.4255C84.2211 19.0499 84.8255 18.851 85.2389 18.4532C85.6601 18.0554 85.8707 17.4938 85.8707 16.7685C85.8707 15.9729 85.6562 15.3372 85.2272 14.8615C84.7982 14.3857 84.2133 14.1439 83.4723 14.1361H80.7346V19.0499ZM96.657 24.8411H103.805V28H92.5505V10.9655H96.657V24.8411ZM119.529 19.8337C119.529 21.4951 119.221 22.9653 118.605 24.2445C117.989 25.5236 117.111 26.5103 115.972 27.2044C114.841 27.8908 113.55 28.234 112.1 28.234C110.649 28.234 109.362 27.9025 108.239 27.2395C107.116 26.5688 106.238 25.6133 105.607 24.3732C104.983 23.133 104.655 21.7096 104.624 20.1028V19.1435C104.624 17.4743 104.928 16.0041 105.536 14.7328C106.153 13.4536 107.03 12.467 108.169 11.7728C109.315 11.0786 110.618 10.7315 112.076 10.7315C113.519 10.7315 114.806 11.0747 115.937 11.7611C117.068 12.4475 117.946 13.4263 118.57 14.6977C119.201 15.9612 119.521 17.4119 119.529 19.0499V19.8337ZM115.352 19.1201C115.352 17.4275 115.068 16.1445 114.498 15.2709C113.937 14.3896 113.129 13.9489 112.076 13.9489C110.017 13.9489 108.929 15.4932 108.812 18.5819L108.8 19.8337C108.8 21.5029 109.077 22.7859 109.631 23.6829C110.185 24.5798 111.008 25.0283 112.1 25.0283C113.137 25.0283 113.937 24.5876 114.498 23.7063C115.06 22.8249 115.344 21.5575 115.352 19.9039V19.1201ZM128.291 21.9865H126.068V28H121.962V10.9655H128.666C130.686 10.9655 132.265 11.414 133.404 12.311C134.543 13.2079 135.112 14.4754 135.112 16.1133C135.112 17.2989 134.87 18.2816 134.387 19.0616C133.911 19.8415 133.162 20.4733 132.14 20.9569L135.697 27.8245V28H131.298L128.291 21.9865ZM126.068 18.8159H128.666C129.446 18.8159 130.031 18.6131 130.421 18.2075C130.818 17.7941 131.017 17.2209 131.017 16.4877C131.017 15.7545 130.818 15.1812 130.421 14.7679C130.023 14.3467 129.438 14.1361 128.666 14.1361H126.068V18.8159ZM148.472 20.7814H142.014V24.8411H149.642V28H137.908V10.9655H149.666V14.1361H142.014V17.7278H148.472V20.7814Z" fill="#DD2242"/>
<path d="M51.6626 50H47.5677V32.9655H51.6626V50ZM69.0591 50H64.976L58.939 39.4002V50H54.8325V32.9655H58.939L64.9643 43.5653V32.9655H69.0591V50ZM71.9717 50V32.9655H77.4587C78.9641 32.9655 80.3173 33.3087 81.5185 33.9951C82.7196 34.6736 83.6556 35.6369 84.3264 36.8849C85.0049 38.125 85.3481 39.5172 85.3559 41.0616V41.8454C85.3559 43.4054 85.0244 44.8054 84.3615 46.0456C83.7063 47.2779 82.7781 48.2451 81.577 48.947C80.3836 49.6412 79.0499 49.9922 77.5757 50H71.9717ZM76.0782 36.1361V46.8411H77.5055C78.6833 46.8411 79.5881 46.4239 80.2198 45.5893C80.8516 44.7469 81.1675 43.499 81.1675 41.8454V41.1084C81.1675 39.4626 80.8516 38.2225 80.2198 37.3879C79.5881 36.5534 78.6677 36.1361 77.4587 36.1361H76.0782ZM102.203 41.8337C102.203 43.4951 101.894 44.9653 101.278 46.2445C100.662 47.5236 99.7847 48.5103 98.6459 49.2044C97.515 49.8908 96.2241 50.234 94.7734 50.234C93.3227 50.234 92.0357 49.9025 90.9126 49.2395C89.7894 48.5688 88.9119 47.6133 88.2802 46.3732C87.6562 45.133 87.3286 43.7096 87.2974 42.1028V41.1435C87.2974 39.4743 87.6016 38.0041 88.21 36.7328C88.8261 35.4536 89.7036 34.467 90.8424 33.7728C91.9889 33.0786 93.2915 32.7315 94.75 32.7315C96.1929 32.7315 97.4799 33.0747 98.6108 33.7611C99.7418 34.4475 100.619 35.4263 101.243 36.6977C101.875 37.9612 102.195 39.4119 102.203 41.0499V41.8337ZM98.0259 41.1201C98.0259 39.4275 97.7412 38.1445 97.1718 37.2709C96.6102 36.3896 95.803 35.9489 94.75 35.9489C92.6909 35.9489 91.6028 37.4932 91.4858 40.5819L91.4741 41.8337C91.4741 43.5029 91.751 44.7859 92.3048 45.6829C92.8586 46.5798 93.6814 47.0283 94.7734 47.0283C95.8108 47.0283 96.6102 46.5876 97.1718 45.7063C97.7334 44.8249 98.0181 43.5575 98.0259 41.9039V41.1201ZM118.862 50H114.779L108.742 39.4002V50H104.635V32.9655H108.742L114.767 43.5653V32.9655H118.862V50ZM132.339 42.7814H125.881V46.8411H133.509V50H121.775V32.9655H133.533V36.1361H125.881V39.7278H132.339V42.7814ZM144.284 45.4723C144.284 44.8717 144.069 44.4037 143.64 44.0683C143.219 43.733 142.474 43.3859 141.406 43.0271C140.337 42.6683 139.464 42.3212 138.785 41.9858C136.578 40.9017 135.474 39.4119 135.474 37.5166C135.474 36.5729 135.747 35.7422 136.293 35.0246C136.847 34.2993 137.627 33.7377 138.633 33.3399C139.639 32.9343 140.77 32.7315 142.026 32.7315C143.25 32.7315 144.346 32.9499 145.313 33.3867C146.288 33.8235 147.045 34.4475 147.583 35.2586C148.121 36.062 148.39 36.9823 148.39 38.0197H144.296C144.296 37.3255 144.081 36.7874 143.652 36.4052C143.231 36.023 142.658 35.8319 141.932 35.8319C141.199 35.8319 140.618 35.9957 140.189 36.3233C139.768 36.6431 139.557 37.0525 139.557 37.5517C139.557 37.9885 139.791 38.3863 140.259 38.7451C140.727 39.0961 141.55 39.4626 142.728 39.8448C143.906 40.2192 144.873 40.6248 145.629 41.0616C147.47 42.1223 148.39 43.5848 148.39 45.4489C148.39 46.9386 147.829 48.1086 146.706 48.9587C145.583 49.8089 144.042 50.234 142.084 50.234C140.704 50.234 139.452 49.9883 138.329 49.4969C137.213 48.9977 136.371 48.3192 135.802 47.4612C135.24 46.5954 134.959 45.601 134.959 44.4778H139.078C139.078 45.3904 139.312 46.0651 139.78 46.5018C140.255 46.9308 141.024 47.1453 142.084 47.1453C142.763 47.1453 143.297 47.001 143.687 46.7124C144.085 46.4161 144.284 46.0027 144.284 45.4723ZM155.187 50H151.092V32.9655H155.187V50ZM168.243 46.8177H162.616L161.633 50H157.246L163.493 32.9655H167.354L173.648 50H169.238L168.243 46.8177ZM163.599 43.6472H167.26L165.424 37.7389L163.599 43.6472Z" fill="white"/>
<defs>
<clipPath id="clip0_12_353">
<rect width="51" height="51" fill="white"/>
</clipPath>
</defs>
</svg>

<svg width="174" height="66" fill="none" xmlns="http://www.w3.org/2000/svg"><g clip-path="url(#clip0_12_353)"><path d="M38.25 15.94V7.97c0-.88-.714-1.594-1.594-1.594h-1.594v-4.78c0-.88-.713-1.594-1.594-1.594-2.256 0-5.711-.173-9.767 2.257-2.522-.75-4.305-.664-6.17-.664-.88 0-1.593.714-1.593 1.594v3.187h-1.594c-.88 0-1.593.714-1.593 1.594v7.968c0 6.49 4.875 11.864 11.155 12.65v20.817a1.594 1.594 0 003.188 0v-5.578h2.39c4.833 0 8.765-3.932 8.765-8.765v-2.39c0-.88-.713-1.594-1.593-1.594h-3.984a8.725 8.725 0 00-5.578 2.009v-4.5c6.27-.776 11.155-6.122 11.155-12.649zm-3.188 0a9.55 9.55 0 01-3.237 7.153c.032-.255.05-.515.05-.779a15.87 15.87 0 00-3.991-10.536 12.723 12.723 0 017.178-2.213v6.374zM31.875 3.19v3.509c-.295.06-.587.128-.877.205a15.943 15.943 0 00-3.5-2.94 12.73 12.73 0 014.377-.774zm-12.75 1.594c3.166 0 6.241 1.156 8.632 3.365-.789.407-1.546.882-2.262 1.42a15.87 15.87 0 00-6.37-2.871V4.784zm-3.187 11.155V9.565c7.03 0 12.75 5.719 12.75 12.749a3.19 3.19 0 01-3.272 3.186c-5.599-.138-9.478-4.587-9.478-9.56zm16.734 18.328h2.39v.796a5.584 5.584 0 01-5.578 5.578h-2.39v-.797a5.584 5.584 0 015.578-5.578z" fill="#fff"/></g><path d="M57.852 20.781h-6.458v4.06h7.628V28H47.287V10.965h11.758v3.171h-7.651v3.592h6.458v3.053zm9.51-4.153l2.785-5.662h4.692l-4.762 8.447L74.967 28H70.23l-2.866-5.768L64.496 28H59.77l4.878-8.587-4.75-8.447h4.68l2.785 5.662zm13.373 5.592V28h-4.107V10.965h6.797c1.303 0 2.454.242 3.452.726 1.006.476 1.782 1.158 2.328 2.047.554.882.83 1.884.83 3.007 0 1.661-.596 2.991-1.79 3.99-1.185.99-2.815 1.485-4.89 1.485h-2.62zm0-3.17h2.69c.796 0 1.4-.199 1.814-.597.421-.398.632-.96.632-1.684 0-.796-.215-1.432-.644-1.907-.429-.476-1.014-.718-1.755-.726h-2.737v4.914zm15.922 5.791h7.148V28H92.55V10.965h4.107v13.876zm22.872-5.007c0 1.661-.308 3.131-.924 4.41-.616 1.28-1.494 2.266-2.633 2.96-1.131.687-2.422 1.03-3.872 1.03-1.451 0-2.738-.332-3.861-.995-1.123-.67-2.001-1.626-2.632-2.866-.624-1.24-.952-2.663-.983-4.27v-.96c0-1.669.304-3.139.912-4.41.617-1.28 1.494-2.266 2.633-2.96 1.146-.694 2.449-1.041 3.907-1.041 1.443 0 2.73.343 3.861 1.03 1.131.685 2.009 1.664 2.633 2.936.631 1.263.951 2.714.959 4.352v.784zm-4.177-.714c0-1.693-.284-2.976-.854-3.85-.561-.88-1.369-1.321-2.422-1.321-2.059 0-3.147 1.544-3.264 4.633l-.012 1.252c0 1.669.277 2.952.831 3.849.554.897 1.377 1.345 2.469 1.345 1.037 0 1.837-.44 2.398-1.322.562-.881.846-2.148.854-3.802v-.784zm12.939 2.866h-2.223V28h-4.106V10.965h6.704c2.02 0 3.599.449 4.738 1.346 1.139.897 1.708 2.164 1.708 3.802 0 1.186-.242 2.169-.725 2.949-.476.78-1.225 1.411-2.247 1.895l3.557 6.867V28h-4.399l-3.007-6.014zm-2.223-3.17h2.598c.78 0 1.365-.203 1.755-.608.397-.414.596-.987.596-1.72s-.199-1.307-.596-1.72c-.398-.421-.983-.632-1.755-.632h-2.598v4.68zm22.404 1.965h-6.458v4.06h7.628V28h-11.734V10.965h11.758v3.171h-7.652v3.592h6.458v3.053z" fill="#DD2242"/><path d="M51.663 50h-4.095V32.965h4.095V50zm17.396 0h-4.083l-6.037-10.6V50h-4.106V32.965h4.106l6.025 10.6v-10.6h4.095V50zm2.913 0V32.965h5.487c1.505 0 2.858.344 4.06 1.03a7.112 7.112 0 012.807 2.89c.679 1.24 1.022 2.632 1.03 4.177v.783c0 1.56-.332 2.96-.994 4.2a7.225 7.225 0 01-2.785 2.902c-1.193.694-2.527 1.045-4.001 1.053h-5.604zm4.106-13.864v10.705h1.427c1.178 0 2.083-.417 2.715-1.252.632-.842.948-2.09.948-3.744v-.737c0-1.645-.316-2.886-.948-3.72-.632-.835-1.552-1.252-2.761-1.252h-1.38zm26.125 5.698c0 1.661-.309 3.131-.925 4.41-.616 1.28-1.493 2.266-2.632 2.96-1.131.687-2.422 1.03-3.873 1.03-1.45 0-2.737-.331-3.86-.995-1.124-.67-2.001-1.626-2.633-2.866-.624-1.24-.951-2.663-.983-4.27v-.96c0-1.669.305-3.139.913-4.41.616-1.28 1.494-2.266 2.632-2.96 1.147-.694 2.45-1.042 3.908-1.042 1.443 0 2.73.344 3.86 1.03 1.132.686 2.009 1.665 2.633 2.937.632 1.263.952 2.714.96 4.352v.784zm-4.177-.714c0-1.692-.285-2.975-.854-3.85-.562-.88-1.369-1.321-2.422-1.321-2.06 0-3.147 1.544-3.264 4.633l-.012 1.252c0 1.669.277 2.952.83 3.849.555.897 1.377 1.345 2.47 1.345 1.037 0 1.836-.44 2.398-1.322.561-.881.846-2.149.854-3.802v-.784zM118.862 50h-4.083l-6.037-10.6V50h-4.107V32.965h4.107l6.025 10.6v-10.6h4.095V50zm13.477-7.219h-6.458v4.06h7.628V50h-11.734V32.965h11.758v3.171h-7.652v3.592h6.458v3.053zm11.945 2.691c0-.6-.215-1.068-.644-1.404-.421-.335-1.166-.682-2.234-1.04-1.069-.36-1.942-.707-2.621-1.042-2.207-1.084-3.311-2.574-3.311-4.47 0-.943.273-1.774.819-2.491.554-.726 1.334-1.287 2.34-1.685 1.006-.406 2.137-.609 3.393-.609 1.224 0 2.32.219 3.287.656.975.437 1.732 1.06 2.27 1.872.538.803.807 1.723.807 2.76h-4.094c0-.694-.215-1.232-.644-1.614-.421-.382-.994-.573-1.72-.573-.733 0-1.314.164-1.743.491-.421.32-.632.73-.632 1.229 0 .437.234.834.702 1.193.468.351 1.291.718 2.469 1.1 1.178.374 2.145.78 2.901 1.217 1.841 1.06 2.761 2.523 2.761 4.387 0 1.49-.561 2.66-1.684 3.51-1.123.85-2.664 1.275-4.622 1.275-1.38 0-2.632-.246-3.755-.737-1.116-.5-1.958-1.178-2.527-2.036-.562-.866-.843-1.86-.843-2.983h4.119c0 .912.234 1.587.702 2.024.475.429 1.244.643 2.304.643.679 0 1.213-.144 1.603-.433.398-.296.597-.71.597-1.24zM155.187 50h-4.095V32.965h4.095V50zm13.056-3.182h-5.627L161.633 50h-4.387l6.247-17.035h3.861L173.648 50h-4.41l-.995-3.182zm-4.644-3.17h3.661l-1.836-5.91-1.825 5.91z" fill="#fff"/><defs><clipPath id="clip0_12_353"><path fill="#fff" d="M0 0h51v51H0z"/></clipPath></defs></svg>
